packages/kaspersky-hexa-ui-icons/src/iconsSVGs/24/FilterActive.svg

<svg width="24" height="24" viewBox="0 0 24 24" fill="none" xmlns="http://www.w3.org/2000/svg">
<circle cx="20" cy="4" r="3" fill="black"/>
<path d="M15.4299 2H6.22435C3.7677 2 2.03532 4.6758 3.59295 6.80939L9.01391 14.3231V19C9.01391 19.8 9.288 20.5602 9.83733 21.1256C10.391 21.6955 11.159 22 12.0139 22C12.8689 22 13.6369 21.6955 14.1905 21.1256C14.7398 20.5602 15.0139 19.8 15.0139 19V14.3231L18.9384 8.88359C18.2548 8.73379 17.6237 8.44414 17.0764 8.04616L13.2029 13.4149C13.08 13.5852 13.0139 13.79 13.0139 14V19C13.0139 19.3435 12.9004 19.5833 12.756 19.732C12.6159 19.8762 12.3838 20 12.0139 20C11.644 20 11.412 19.8762 11.2718 19.732C11.1274 19.5833 11.0139 19.3435 11.0139 19V14C11.0139 13.79 10.9478 13.5852 10.8249 13.4149L5.21311 5.63674L5.2092 5.63137C4.76981 5.0308 5.13475 4 6.22435 4H15.0139C15.0139 3.99992 15.0139 4.00008 15.0139 4C15.0139 3.28899 15.1623 2.61239 15.4299 2Z" fill="black"/>
</svg>

<svg xmlns="http://www.w3.org/2000/svg" width="24" height="24" fill="none" viewBox="0 0 24 24"><path d="M1 2h22v20H1z"/><circle cx="20" cy="4" r="3" fill="#000"/><path fill="#000" d="M15.4299 2H6.2244C3.7677 2 2.0354 4.6758 3.593 6.8094l5.421 7.5137V19c0 .8.274 1.5602.8233 2.1256.5537.5699 1.3217.8744 2.1766.8744s1.623-.3045 2.1766-.8744c.5493-.5654.8234-1.3256.8234-2.1256v-4.6769l3.9245-5.4395a4.975 4.975 0 0 1-1.862-.8374l-3.8735 5.3687a1 1 0 0 0-.189.5851v5c0 .3435-.1135.5833-.2579.732-.1401.1442-.3722.268-.7421.268s-.6019-.1238-.7421-.268c-.1444-.1487-.2579-.3885-.2579-.732v-5a1 1 0 0 0-.189-.5851L5.2131 5.6367l-.0039-.0053C4.7698 5.0308 5.1348 4 6.2244 4h8.7895c0-.711.1484-1.3876.416-2"/></svg>
